; generated by PrusaSlicer 2.6.0+MacOS-arm64 on 2023-08-02 at 19:46:10 UTC


;
;
; 

; external perimeters extrusion width = 0.45mm
; perimeters extrusion width = 0.45mm
; infill extrusion width = 0.45mm
; solid infill extrusion width = 0.45mm
; top infill extrusion width = 0.40mm
; support material extrusion width = 0.35mm
; first layer extrusion width = 0.42mm

M73 P0 R175
M73 Q0 S178
M201 X1000 Y1000 Z200 E5000 ; sets maximum accelerations, mm/sec^2
M203 X200 Y200 Z12 E120 ; sets maximum feedrates, mm / sec
M204 S1250 T1250 ; sets acceleration (S) and retract acceleration (R), mm/sec^2
M205 X8.00 Y8.00 Z0.40 E4.50 ; sets the jerk limits, mm/sec
M205 S0 T0 ; sets the minimum extruding and travel feed rate, mm/sec
;TYPE:Custom
M862.3 P "MK3S" ; printer model check
M862.1 P0.4 ; nozzle diameter check
M115 U3.12.2 ; tell printer latest fw version
G90 ; use absolute coordinates
M83 ; extruder relative mode
M104 S215 ; set extruder temp
M140 S60 ; set bed temp
M190 S60 ; wait for bed temp
M109 S215 ; wait for extruder temp
G28 W ; home all without mesh bed level
G80 ; mesh bed leveling

G1 Z0.2 F720
G1 Y-3 F1000 ; go outside print area
G92 E0
G1 X60 E9 F1000 ; intro line
G1 X100 E12.5 F1000 ; intro line

G92 E0
M221 S95

; Don't change E values below. Excessive value can damage the printer.

M907 E538 ; set extruder motor current
G21 ; set units to millimeters
G90 ; use absolute coordinates
M83 ; use relative distances for extrusion
M900 K0.05 ; Filament gcode LA 1.5
M900 K30 ; Filament gcode LA 1.0
M107
;LAYER_CHANGE
;Z:0.2
;HEIGHT:0.2
;BEFORE_LAYER_CHANGE
G92 E0.0
;0.2


G1 E-.8 F2100
G1 Z.4 F720
;AFTER_LAYER_CHANGE
;0.2
G1 X94.534 Y89.363 F10800
G1 Z.2 F720
G1 E.8 F2100
M204 S800
;TYPE:Skirt/Brim
;WIDTH:0.42
G1 F1200
G1 X113.101 Y70.796 E.82329
G1 X114.782 Y70.1 E.05705
G1 X157.739 Y70.1 E1.34689
G1 X158.49 Y70.222 E.02386
G1 X165.412 Y72.529 E.22877
G1 X170.337 Y74.965 E.17228
G1 X177.876 Y80.024 E.28467
M73 Q0 S177
G1 X185.205 Y87.418 E.32642
G1 X194.433 Y101.261 E.52164
G1 X194.71 Y101.828 E.01979
G1 X197.017 Y108.749 E.22874
G1 X197.139 Y109.501 E.02389
G1 X197.139 Y143.229 E1.05752
G1 X197.017 Y143.981 E.02389
G1 X194.71 Y150.902 E.22874
G1 X194.433 Y151.469 E.01979
G1 X184.908 Y165.673 E.53622
G1 X177.514 Y173.002 E.32642
G1 X170.593 Y177.616 E.26081
G1 X165.412 Y180.201 E.18154
G1 X158.49 Y182.508 E.22877
G1 X157.739 Y182.63 E.02386
G1 X124.01 Y182.63 E1.05755
G1 X123.259 Y182.508 E.02386
G1 X116.338 Y180.201 E.22874
G1 X111.156 Y177.616 E.18157
G1 X104.235 Y173.002 E.26081
G1 X101.566 Y170.398 E.11692
G1 X94.237 Y163.004 E.32642
G1 X89.623 Y156.083 E.26081
G1 X87.039 Y150.902 E.18153
G1 X84.732 Y143.981 E.22874
G1 X84.61 Y143.229 E.02389
G1 X84.61 Y109.501 E1.05752
G1 X84.732 Y108.749 E.02389
G1 X87.039 Y101.828 E.22874
G1 X89.623 Y96.647 E.18153
G1 X94.501 Y89.413 E.27357
M204 S1000
;WIPE_START
G1 F8640
G1 X96.95 Y86.962 E-.8
;WIPE_END
G1 Z.6 F720
G1 X172.208 Y143.662 F10800
G1 Z.2 F720
G1 E.8 F2100
M204 S800
G1 F1200
G1 X173.145 Y142.631 E.04368
G1 X173.829 Y142.122 E.02673
G1 X175.803 Y141.497 E.06492
G1 X186.859 Y141.499 E.34665
G1 X188.432 Y141.933 E.05116
G1 X189.316 Y142.477 E.03254
G1 X190.039 Y143.176 E.03153
G1 X190.672 Y144.127 E.03582
G1 X191.069 Y145.196 E.03575
G1 X191.188 Y146.624 E.04493
G1 X190.947 Y147.823 E.03835
G1 X189.82 Y150.303 E.08541
G1 X188.663 Y152.536 E.07885
G1 X187.394 Y154.731 E.0795
G1 X185.996 Y156.907 E.08109
G1 X184.481 Y159.034 E.08188
G1 X182.814 Y161.157 E.08463
G1 X181.186 Y162.317 E.06268
G1 X181.092 Y162.362 E.00327
G1 X179.604 Y162.723 E.04801
G1 X175.838 Y162.724 E.11808
G1 X174.525 Y162.41 E.04233
G1 X173.605 Y161.952 E.03222
G1 X172.574 Y161.016 E.04366
M73 P0 R174
G1 X172.066 Y160.331 E.02674
G1 X171.44 Y158.359 E.06487
G1 X171.436 Y145.894 E.39083
G1 X171.751 Y144.582 E.04231
G1 X172.182 Y143.715 E.03036
M204 S1000
G1 X172.518 Y143.885 F10800
M204 S800
G1 F1200
G1 X173.409 Y142.9 E.04164
G1 X174.028 Y142.445 E.02409
G1 X175.832 Y141.874 E.05933
G1 X186.833 Y141.877 E.34493
G1 X188.259 Y142.269 E.04637
G1 X189.069 Y142.762 E.02973
G1 X189.761 Y143.432 E.0302
G1 X190.345 Y144.316 E.03322
G1 X190.706 Y145.3 E.03286
G1 X190.81 Y146.627 E.04173
G1 X190.595 Y147.687 E.03391
G1 X189.483 Y150.134 E.08427
G1 X188.335 Y152.351 E.07828
G1 X187.07 Y154.538 E.07922
G1 X185.681 Y156.699 E.08055
G1 X184.181 Y158.805 E.08107
G1 X182.534 Y160.902 E.08361
G1 X180.985 Y161.997 E.05948
G1 X179.581 Y162.346 E.04536
G1 X175.86 Y162.347 E.11667
G1 X174.636 Y162.049 E.0395
G1 X173.798 Y161.627 E.02942
G1 X172.843 Y160.751 E.04063
G1 X172.388 Y160.133 E.02406
G1 X171.818 Y158.33 E.05929
G1 X171.813 Y145.917 E.3892
G1 X172.112 Y144.693 E.03951
G1 X172.491 Y143.938 E.02649
M204 S1000
G1 X172.827 Y144.109 F10800
M204 S800
G1 F1200
G1 X172.857 Y144.05 E.00208
G1 X173.673 Y143.17 E.03763
G1 X174.225 Y142.768 E.02141
G1 X175.861 Y142.251 E.0538
G1 X186.808 Y142.254 E.34324
G1 X188.085 Y142.604 E.04152
G1 X188.854 Y143.073 E.02824
G1 X189.482 Y143.687 E.02754
G1 X190.017 Y144.503 E.03059
G1 X190.343 Y145.404 E.03004
G1 X190.435 Y146.579 E.03695
G1 X190.242 Y147.551 E.03107
G1 X189.146 Y149.964 E.0831
G1 X188.002 Y152.174 E.07803
G1 X186.746 Y154.346 E.07867
G1 X185.366 Y156.492 E.08
G1 X183.882 Y158.575 E.08019
G1 X182.255 Y160.647 E.0826
G1 X180.812 Y161.658 E.05524
G1 X179.557 Y161.969 E.04054
G1 X175.884 Y161.97 E.11516
G1 X174.749 Y161.688 E.03667
G1 X173.994 Y161.304 E.02656
G1 X173.114 Y160.487 E.03765
G1 X172.711 Y159.936 E.0214
G1 X172.195 Y158.301 E.05376
G1 X172.19 Y145.94 E.38757
G1 X172.472 Y144.805 E.03667
G1 X172.799 Y144.163 E.02259
M204 S1000
G1 X173.134 Y144.335 F10800
M204 S800
G1 F1200
G1 X173.179 Y144.247 E.0031
G1 X173.935 Y143.442 E.03463
G1 X174.421 Y143.091 E.0188
G1 X175.889 Y142.628 E.04826
G1 X186.783 Y142.631 E.34157
G1 X187.913 Y142.941 E.03674
G1 X188.607 Y143.358 E.02539
G1 X189.204 Y143.942 E.02619
G1 X189.688 Y144.689 E.02791
G1 X189.979 Y145.507 E.02722
G1 X190.06 Y146.533 E.03227
G1 X189.889 Y147.416 E.0282
G1 X188.809 Y149.795 E.08192
G1 X187.669 Y151.997 E.07775
G1 X186.422 Y154.153 E.07809
G1 X185.051 Y156.284 E.07945
G1 X183.583 Y158.346 E.07936
G1 X181.975 Y160.392 E.08159
G1 X180.686 Y161.301 E.04945
G1 X179.534 Y161.592 E.03725
G1 X175.907 Y161.593 E.11372
G1 X174.863 Y161.328 E.03377
G1 X174.191 Y160.981 E.02371
G1 X173.385 Y160.226 E.03463
G1 X173.034 Y159.74 E.0188
G1 X172.572 Y158.272 E.04825
G1 X172.568 Y145.964 E.38591
G1 X172.832 Y144.92 E.03376
G1 X173.106 Y144.389 E.01873
M204 S1000
G1 X173.439 Y144.563 F10800
M204 S800
G1 F1200
G1 X173.5 Y144.447 E.00411
G1 X174.195 Y143.715 E.03165
G1 X174.615 Y143.415 E.01618
G1 X175.918 Y143.005 E.04283
G1 X186.757 Y143.008 E.33985
G1 X187.741 Y143.277 E.03198
G1 X188.393 Y143.67 E.02387
G1 X188.923 Y144.194 E.02337
G1 X189.358 Y144.873 E.02528
G1 X189.615 Y145.608 E.02441
G1 X189.685 Y146.489 E.02771
G1 X189.536 Y147.281 E.02527
G1 X188.471 Y149.626 E.08075
G1 X187.34 Y151.812 E.07717
G1 X186.098 Y153.96 E.0778
G1 X184.742 Y156.069 E.07862
G1 X183.284 Y158.116 E.0788
G1 X181.696 Y160.138 E.08061
G1 X180.558 Y160.945 E.04374
G1 X179.509 Y161.215 E.03396
G1 X175.932 Y161.216 E.11215
G1 X174.979 Y160.969 E.03087
G1 X174.39 Y160.66 E.02085
G1 X173.659 Y159.965 E.03163
G1 X173.359 Y159.545 E.01618
G1 X172.949 Y158.243 E.0428
G1 X172.945 Y145.988 E.38425
G1 X173.191 Y145.036 E.03083
G1 X173.411 Y144.616 E.01487
M204 S1000
G1 X173.743 Y144.793 F10800
M204 S800
G1 F1200
G1 X173.82 Y144.648 E.00515
G1 X174.453 Y143.991 E.02861
G1 X174.808 Y143.741 E.01361
G1 X175.947 Y143.382 E.03744
G1 X186.732 Y143.385 E.33816
G1 X187.571 Y143.615 E.02728
G1 X188.144 Y143.954 E.02087
G1 X188.642 Y144.447 E.02197
G1 X189.027 Y145.055 E.02256
G1 X189.25 Y145.707 E.02161
G1 X189.309 Y146.447 E.02328
G1 X189.183 Y147.147 E.0223
G1 X188.134 Y149.457 E.07955
G1 X187.007 Y151.634 E.07686
G1 X185.773 Y153.768 E.07729
G1 X184.432 Y155.854 E.07775
G1 X182.984 Y157.887 E.07826
G1 X181.415 Y159.884 E.07963
G1 X180.428 Y160.589 E.03803
G1 X179.484 Y160.837 E.0306
G1 X175.957 Y160.839 E.11059
G1 X175.098 Y160.611 E.02787
G1 X174.592 Y160.34 E.018
G1 X173.934 Y159.707 E.02863
G1 X173.684 Y159.352 E.01361
G1 X173.326 Y158.214 E.03741
G1 X173.322 Y146.013 E.38255
G1 X173.55 Y145.155 E.02784
G1 X173.715 Y144.846 E.01098
M204 S1000
G1 X174.044 Y145.025 F10800
M204 S800
G1 F1200
G1 X174.138 Y144.852 E.00617
G1 X174.709 Y144.268 E.02561
G1 X174.999 Y144.067 E.01106
G1 X175.975 Y143.759 E.03209
G1 X186.707 Y143.762 E.33649
G1 X187.401 Y143.952 E.02256
G1 X187.931 Y144.266 E.01932
G1 X188.359 Y144.697 E.01904
G1 X188.695 Y145.235 E.01989
G1 X188.886 Y145.804 E.01882
G1 X188.934 Y146.407 E.01897
G1 X188.829 Y147.014 E.01931
G1 X187.797 Y149.288 E.0783
G1 X186.675 Y151.457 E.07657
G1 X185.449 Y153.575 E.07673
G1 X184.122 Y155.639 E.07694
G1 X182.685 Y157.658 E.0777
G1 X181.135 Y159.631 E.07867
G1 X180.296 Y160.234 E.0324
G1 X179.459 Y160.46 E.02718
G1 X175.983 Y160.462 E.10899
G1 X175.22 Y160.253 E.0248
G1 X174.796 Y160.022 E.01514
G1 X174.211 Y159.451 E.02563
G1 X174.01 Y159.161 E.01106
G1 X173.703 Y158.186 E.03205
G1 X173.699 Y146.039 E.38086
G1 X173.907 Y145.277 E.02477
G1 X174.016 Y145.078 E.00711
M204 S1000
G1 X174.343 Y145.259 F10800
M204 S800
G1 F1200
G1 X174.454 Y145.06 E.00714
G1 X174.963 Y144.548 E.02264
G1 X175.188 Y144.394 E.00855
G1 X176.004 Y144.137 E.02682
G1 X186.681 Y144.139 E.33477
G1 X187.233 Y144.291 E.01795
G1 X187.684 Y144.552 E.01634
G1 X188.051 Y144.916 E.01621
G1 X188.364 Y145.416 E.0185
G1 X188.512 Y145.861 E.0147
G1 X188.558 Y146.368 E.01596
G1 X188.462 Y146.926 E.01775
G1 X187.456 Y149.127 E.07588
G1 X186.346 Y151.272 E.07573
G1 X185.13 Y153.375 E.07617
G1 X183.807 Y155.431 E.07666
G1 X182.38 Y157.435 E.07714
G1 X180.854 Y159.378 E.07746
G1 X180.162 Y159.881 E.02682
G1 X179.432 Y160.083 E.02375
G1 X176.009 Y160.084 E.10733
G1 X175.345 Y159.897 E.02163
G1 X175.003 Y159.706 E.01228
G1 X174.491 Y159.197 E.02264
G1 X174.337 Y158.972 E.00855
G1 X174.08 Y158.157 E.02679
G1 X174.076 Y146.066 E.3791
G1 X174.263 Y145.402 E.02163
G1 X174.314 Y145.312 E.00324
M204 S1000
G1 X174.638 Y145.497 F10800
M204 S800
G1 F1200
G1 X174.767 Y145.271 E.00816
G1 X175.214 Y144.83 E.01969
G1 X175.374 Y144.723 E.00604
G1 X176.033 Y144.514 E.02168
G1 X186.656 Y144.516 E.33308
G1 X187.065 Y144.629 E.0133
G1 X187.473 Y144.866 E.01479
G1 X187.743 Y145.134 E.01193
G1 X188.031 Y145.595 E.01704
G1 X188.146 Y145.953 E.01179
G1 X188.18 Y146.372 E.01318
G1 X188.096 Y146.834 E.01472
G1 X187.12 Y148.958 E.07329
G1 X186.017 Y151.087 E.07518
G1 X184.805 Y153.182 E.07589
G1 X183.493 Y155.223 E.07608
G1 X182.076 Y157.213 E.0766
G1 X180.574 Y159.125 E.07624
G1 X180.024 Y159.528 E.02138
G1 X179.405 Y159.706 E.02019
G1 X176.037 Y159.707 E.1056
G1 X175.475 Y159.542 E.01836
G1 X175.214 Y159.393 E.00942
G1 X174.773 Y158.947 E.01967
G1 X174.666 Y158.786 E.00606
G1 X174.457 Y158.127 E.02168
G1 X174.453 Y146.094 E.37729
G1 X174.612 Y145.551 E.01774
M204 S1000
G1 X174.971 Y145.666 F10800
M204 S800
G1 F1200
G1 X175.078 Y145.486 E.00657
G1 X175.461 Y145.115 E.01672
G1 X175.557 Y145.053 E.00358
G1 X176.063 Y144.891 E.01666
G1 X186.63 Y144.893 E.33132
G1 X186.9 Y144.969 E.00879
G1 X187.23 Y145.155 E.01188
G1 X187.436 Y145.354 E.00898
G1 X187.697 Y145.772 E.01545
G1 X187.779 Y146.041 E.00882
G1 X187.802 Y146.374 E.01047
G1 X187.743 Y146.698 E.01033
G1 X186.783 Y148.788 E.07211
G1 X185.684 Y150.91 E.07493
G1 X184.481 Y152.99 E.07534
G1 X183.178 Y155.016 E.07553
G1 X181.777 Y156.983 E.07572
G1 X180.292 Y158.873 E.07536
G1 X179.883 Y159.177 E.01598
G1 X179.376 Y159.329 E.0166
G1 X176.067 Y159.33 E.10375
G1 X175.61 Y159.189 E.015
G1 X175.429 Y159.083 E.00658
G1 X175.058 Y158.7 E.01672
G1 X174.997 Y158.604 E.00357
G1 X174.834 Y158.098 E.01667
G1 X174.83 Y146.123 E.37547
G1 X174.953 Y145.724 E.01309
M204 S1000
G1 X175.31 Y145.841 F10800
M204 S800
G1 F1200
G1 X175.383 Y145.708 E.00476
G1 X175.703 Y145.405 E.01382
G1 X176.094 Y145.268 E.01299
G1 X186.602 Y145.27 E.32947
G1 X186.738 Y145.309 E.00444
G1 X186.993 Y145.449 E.00912
G1 X187.13 Y145.576 E.00586
G1 X187.363 Y145.95 E.01382
G1 X187.404 Y146.087 E.00448
G1 X187.424 Y146.377 E.00911
G1 X187.391 Y146.562 E.00589
G1 X186.446 Y148.619 E.07098
G1 X185.352 Y150.733 E.07463
G1 X184.157 Y152.797 E.07478
G1 X182.863 Y154.808 E.07498
G1 X181.477 Y156.754 E.07491
G1 X180.01 Y158.621 E.07445
G1 X179.736 Y158.829 E.01079
G1 X179.346 Y158.952 E.01282
G1 X176.098 Y158.953 E.10184
G1 X175.752 Y158.839 E.01142
G1 X175.651 Y158.777 E.00372
G1 X175.33 Y158.428 E.01487
G1 X175.211 Y158.067 E.01192
G1 X175.207 Y146.155 E.37349
G1 X175.292 Y145.898 E.00849
M204 S1000
G1 X175.644 Y146.024 F10800
M204 S800
G1 F1200
G1 X175.682 Y145.938 E.00295
G1 X175.916 Y145.721 E.01001
G1 X176.129 Y145.645 E.00709
G1 X186.535 Y145.641 E.32627
G1 X186.826 Y145.801 E.01041
G1 X187.03 Y146.14 E.01241
G1 X187.038 Y146.426 E.00897
G1 X186.105 Y148.457 E.07008
G1 X185.019 Y150.555 E.07407
G1 X183.833 Y152.604 E.07423
G1 X182.549 Y154.6 E.07441
G1 X181.173 Y156.532 E.07437
G1 X179.727 Y158.371 E.07335
G1 X179.582 Y158.483 E.00574
G1 X179.313 Y158.575 E.00891
G1 X176.133 Y158.576 E.09971
G1 X175.882 Y158.479 E.00844
G1 X175.665 Y158.244 E.01003
G1 X175.588 Y158.031 E.0071
G1 X175.584 Y146.19 E.37127
G1 X175.624 Y146.08 E.00367
M204 S1000
G1 X175.965 Y146.222 F10800
M204 S800
G1 F1200
G1 X175.99 Y146.162 E.00204
G1 X176.102 Y146.051 E.00494
G1 X176.171 Y146.022 E.00235
G1 X186.463 Y146.019 E.3227
G1 X186.548 Y146.065 E.00303
G1 X186.659 Y146.238 E.00644
G1 X186.665 Y146.334 E.00302
G1 X185.768 Y148.288 E.06741
G1 X184.686 Y150.378 E.07379
G1 X183.509 Y152.411 E.07366
G1 X182.234 Y154.392 E.07387
G1 X180.868 Y156.309 E.0738
G1 X179.443 Y158.123 E.07233
G1 X179.275 Y158.198 E.00577
G1 X176.175 Y158.199 E.0972
G1 X176.106 Y158.17 E.00235
G1 X175.994 Y158.059 E.00494
G1 X175.965 Y157.989 E.00238
G1 X175.961 Y146.281 E.3671
M204 S1000
;WIPE_START
G1 F8640
G1 X175.99 Y146.162 E-.02828
G1 X176.102 Y146.051 E-.03641
G1 X176.171 Y146.022 E-.01728
G1 X179.281 Y146.021 E-.71803
;WIPE_END
G1 Z.6 F720
G1 X176.005 Y111.207 F10800
G1 Z.2 F720
G1 E.8 F2100
M204 S800
G1 F1200
G1 X175.681 Y111.207 E.01016
G1 X174.505 Y110.909 E.03804
G1 X173.457 Y110.36 E.03709
G1 X172.512 Y109.465 E.04081
G1 X171.845 Y108.408 E.03919
G1 X171.423 Y106.85 E.05061
G1 X171.419 Y94.472 E.3881
G1 X171.748 Y93.041 E.04604
G1 X172.632 Y91.59 E.05327
G1 X173.591 Y90.77 E.03956
G1 X174.711 Y90.23 E.03899
G1 X175.92 Y89.997 E.0386
G1 X179.605 Y90.001 E.11554
G1 X181.022 Y90.343 E.0457
G1 X182.338 Y91.136 E.04817
G1 X184.485 Y93.716 E.10524
G1 X185.96 Y95.784 E.07964
G1 X187.344 Y97.93 E.08007
G1 X188.627 Y100.143 E.0802
G1 X189.834 Y102.471 E.08222
G1 X190.941 Y104.908 E.08392
G1 X191.186 Y106.402 E.04747
G1 X191.06 Y107.5 E.03465
G1 X190.681 Y108.539 E.03468
G1 X189.729 Y109.87 E.05131
G1 X189.076 Y110.402 E.02641
G1 X188.344 Y110.818 E.0264
G1 X186.783 Y111.22 E.05054
G1 X176.065 Y111.207 E.33606
M204 S1000
G1 X176.065 Y110.836 F10800
M204 S800
G1 F1200
G1 X175.751 Y110.835 E.00985
G1 X174.619 Y110.549 E.03661
G1 X173.696 Y110.067 E.03265
G1 X172.816 Y109.241 E.03784
G1 X172.201 Y108.28 E.03577
G1 X171.8 Y106.824 E.04735
G1 X171.796 Y94.493 E.38663
G1 X172.087 Y93.209 E.04128
G1 X172.901 Y91.855 E.04953
G1 X173.778 Y91.099 E.0363
G1 X174.852 Y90.58 E.0374
G1 X175.937 Y90.374 E.03463
G1 X179.581 Y90.378 E.11426
G1 X180.903 Y90.702 E.04268
G1 X182.114 Y91.441 E.04448
G1 X184.182 Y93.94 E.1017
G1 X185.65 Y96 E.07931
G1 X187.024 Y98.131 E.0795
G1 X188.299 Y100.328 E.07965
G1 X189.493 Y102.631 E.08134
G1 X190.587 Y105.041 E.08298
G1 X190.808 Y106.387 E.04277
G1 X190.698 Y107.393 E.03173
G1 X190.335 Y108.385 E.03312
G1 X189.472 Y109.594 E.04657
G1 X188.85 Y110.099 E.02512
G1 X188.18 Y110.478 E.02414
G1 X186.76 Y110.843 E.04597
G1 X176.125 Y110.836 E.33345
M204 S1000
G1 X176.125 Y110.464 F10800
M204 S800
G1 F1200
G1 X175.821 Y110.464 E.00953
G1 X174.733 Y110.189 E.03519
G1 X173.935 Y109.774 E.0282
G1 X173.091 Y108.982 E.03629
G1 X172.556 Y108.151 E.03099
G1 X172.178 Y106.797 E.04408
